%
(Header)
(Generated by gcodetools from Inkscape.)
(Using default header. To add your own header create file "header" in the output dir.)
M3
(Header end.)
G21 (All units in mm)

(Start cutting path id: path2999)
(Change tool to Default tool)

G00 Z50.000000
G00 X26.206349 Y25.803174

G01 Z-1.250000 F100.0(Penetrate)
G02 X25.937772 Y24.826498 Z-1.250000 I-0.484916 J-0.391919 F400.000000
G02 X24.980026 Y24.812036 Z-1.250000 I-0.499363 J1.349758
G02 X23.746449 Y26.386378 Z-1.250000 I0.579428 J1.724467
G02 X24.224073 Y28.255820 Z-1.250000 I2.943394 J0.243727
G02 X26.966645 Y29.774110 Z-1.250000 I2.821322 J-1.860136
G02 X29.885316 Y28.776587 Z-1.250000 I0.104059 J-4.464191
G02 X31.720140 Y24.874418 Z-1.250000 I-3.128790 J-3.853634
G02 X30.170899 Y20.897884 Z-1.250000 I-6.029357 J0.058957
G02 X25.110753 Y18.735360 Z-1.250000 I-4.864920 J4.382105
G02 X20.074735 Y20.847485 Z-1.250000 I0.226721 J7.600423
G02 X17.579419 Y27.065161 Z-1.250000 I5.626455 J5.867600
G02 X20.259522 Y33.161110 Z-1.250000 I9.171944 J-0.395343
G02 X27.634582 Y35.991958 Z-1.250000 I6.866087 J-6.865506
G02 X34.790606 Y32.741138 Z-1.250000 I-0.563913 J-10.743022
G02 X37.958625 Y24.208741 Z-1.250000 I-8.101248 J-7.862267
G02 X34.135450 Y15.992594 Z-1.250000 I-12.313582 J0.732230
G02 X24.445727 Y12.486344 Z-1.250000 I-8.857051 J9.334793
G02 X15.169445 Y16.882934 Z-1.250000 I0.900283 J13.883710
G02 X11.324241 Y27.729985 Z-1.250000 I10.566829 J9.850941
G02 X16.294972 Y38.066401 Z-1.250000 I15.453473 J-1.068091
G02 X28.299357 Y42.251075 Z-1.250000 I10.844222 J-11.797770
G02 X39.695896 Y36.705689 Z-1.250000 I-1.235694 J-17.022951
G02 X44.220424 Y23.543959 Z-1.250000 I-13.027909 J-11.837074
G02 X38.100000 Y11.087303 Z-1.250000 I-18.592206 J1.403125
G00 Z50.000000

(End cutting path id: path2999)


(Footer)
M5
G00 X0.0000 Y0.0000
M2
(Using default footer. To add your own footer create file "footer" in the output dir.)
(end)
%